X: 110627
T: King's
S: Luke O'Malley vol 1
Z: B.Black
M: 6/8
L: 1/8
R: jig
K: Gm
B/c/ | dcB BAB | GBe FBd | EGe DFB | cAF f=e_e |
d2 B BA_A | GBe FBd | EGc DFB | AGF G2 :|
c | dcB BAB | dBG BAG | A^FD cAF | ded cBA |
d2 B BAB | dBG BAG | A^FD dcA | BG^F G2 :|
W: %blank line
P: version in Am
K: Am
c/d/ | edc cBc | Acf Gce | FAf EGc | dBG g^f=f |
e2 c cB^A | Acf Gce | FAd EGc | BAG A2 :|
d | edc cBc | ecA cBA | B^GE dBG | efe dcB |
e2 c cBc | ecA cBA | B^GE edB | cA^G A2 :|
